!!!!SEGMENT: pl-kk--kk-i-625--001-001_lisinski-karol--vesperae-ex-a-dixit-dominus.krn
!!!cenid: 18xx:4600
!!!COM: Lisiński, Karol
!!!COM-rismID: pe50053612
!!!CDT:
!!!CNT: Polish
!!!OPR: Vesperae ex A
!!!OTL: Dixit Dominus
!!!OMV: 001
!!!PDT:
!!!AGN: Sacred; Vespers
!!!YEC: Copyright 2022 Narodowy Instytut Fryderyka Chopina (https://polishscores.org)
!!!YEM: License CC-BY-4.0 (https://creativecommons.org/licenses/by/4.0)
!!!SMS-siglum: PL-Kk
!!!SMS-shelfmark: Kk.I.625
!!!SMS-variant: Violino Primo: Kk.I.625: 25 ; Violino Secundo: Kk.I.625: 35
!!!SMS-altvar: Violino Primo: Kk.I.625: 20 ; Violino Secundo: Kk.I.625: 30
!!!SMS-shelfwork: 001-001 M
!!!NIFC-rismSourceID: 1001210166
!!!NIFC-rismChildID: 1001210166
!!!NIFC-islandoraID: pl-kk:20012
!!!URL-pdf-islandora: https://repozytorium.nifc.pl/islandora/object/pl-kk:20012/datastream/PDF/view
!!!URL-scan: https://polish.musicsources.pl/pl/lokalizacje/galeria/rekopisy/7259/2 @EN{Scan on Polish Music Sources Website} @PL{Skany w portalu Dziedzictwo Muzyki Polskiej w otwartym dostępie}
!!!IIIF:
!!!ONB-nifc: UWAGA: Części Nieszporów: 1. Dixit Dominus, 2. Confitebor, 3. Beatus vir, 4. Laudate pueri, 5. In exitu, 6. Magnificat. Gloria wchodzi w ramy ww. części. Uwaga: Partia Organo na skanach 44-46 i 2. Uwaga: Violino Primo i Secondo wg drugich odpisów spisanych ręką tą samą co reszta partii (s. 25-28 i 35-38). Proszę uzupełnić pola SMS:variant i SMS:altvar.
!!!AIN: 1 alto 1 bass 1 canto 2 clrno 1 organ 1 tenor 1 violn
!!!key:
**kern	**fba	**kern	**kern	**kern	**text	**kern	**text	**kern	**text	**kern	**text	**kern	**kern
*part9	*	*part8	*part7	*part6	*part6	*part5	*part5	*part4	*part4	*part3	*part3	*part2	*part1
*staff9	*	*staff8	*staff7	*staff6	*staff6	*staff5	*staff5	*staff4	*staff4	*staff3	*staff3	*staff2	*staff1
*I"Organo	*	*I"Violino Secundo	*I"Violino Primo	*I"Baſso	*	*I"Tenore	*	*I"Alto	*	*I"Canto	*	*I"Clarino Secundo Ex A.	*I"Clarino Primo Ex A
*I'Org.	*	*I'Vn II	*I'Vn I	*I'B.	*	*I'T.	*	*I'A.	*	*I'C.	*	*I'Cl. in B♭	*I'Cl. in B♭
*Iorgan	*	*Ivioln	*	*Ibass	*	*Itenor	*	*Ialto	*	*Icanto	*	*Iclrno	*Iclrno
*ICklav	*	*ICstr	*	*ICvox	*	*ICvox	*	*ICvox	*	*ICvox	*	*ICbras	*ICbras
*clefF4	*	*clefG2	*clefG2	*clefF4	*	*clefC4	*	*clefC3	*	*clefC1	*	*clefG2	*clefG2
*	*	*	*	*	*	*	*	*	*	*	*	*ITrd2c3	*ITrd2c3
*k[f#c#g#]	*	*k[f#c#g#]	*k[f#c#g#]	*k[f#c#g#]	*	*k[f#c#g#]	*	*k[f#c#g#]	*	*k[f#c#g#]	*	*k[f#c#g#]	*k[f#c#g#]
*A:	*	*A:	*A:	*A:	*	*A:	*	*A:	*	*A:	*	*A:	*A:
*M3/4	*	*M3/4	*M3/4	*M3/4	*	*M3/4	*	*M3/4	*	*M3/4	*	*M3/4	*M3/4
=1	=1	=1	=1	=1	=1	=1	=1	=1	=1	=1	=1	=1	=1
!	!	!	!LO:TX:b:t=Dixit Dominus	!LO:TX:a:t=Poco Vivace	!	!	!	!LO:TX:a:t=Poco vivace	!	!LO:TX:a:t=Poco Vivace	!	!LO:TX:b:t=Dixit Dominus	!LO:TX:b:t=Dixit Dominus
4AA/	.	4r	4r	4r	.	4r	.	4r	.	4r	.	4r	4r
4A\	.	4cc#\	4aa\	4A\	Di-	4e\	Di-	4e\	Di-	4cc#\	Di-	4a\	4cc#\
4B\	6\	4dd\	4gg#\	4B\	-xit	4d\	-xit	4g#\	-xit	4dd\	-xit	4b\	4dd\
=2	=2	=2	=2	=2	=2	=2	=2	=2	=2	=2	=2	=2	=2
4c#\	6\	4ee\	8aa\	4.c#\	Do-	4c#\	Do-	4e\	Do-	4.ee\	Do-	4cc#\	4ee\
.	.	.	4a/	.	.	.	.	.	.	.	.	.	.
4c#\	.	4ee\	.	.	.	4e\	-mi-	4e\	-mi-	.	.	4cc#\	4ee\
.	.	.	4cc#/	8c#\	-mi-	.	.	.	.	8ee\	-mi-	.	.
4c#\	.	4a/	.	4c#\	-nus	4e\	-nus	4e\	-nus	4a\	-nus	4c#/	4a\
.	.	.	8aa\	.	.	.	.	.	.	.	.	.	.
=3	=3	=3	=3	=3	=3	=3	=3	=3	=3	=3	=3	=3	=3
4d\	.	4ff#\	4aa\	4.d\	Do-	4A\	Do-	4a\	Do-	4ff#\	Do-	4dd\	4ff#\
4c#\	6	4ee\	4aa\	.	.	4c#\	-mi-	4a\	-mi-	4ee\	-mi-	4cc#\	4ee\
.	.	.	.	8c#\	-mi-	.	.	.	.	.	.	.	.
4B\	6\	4dd\	4gg#\	4B\	-no	4d\	-no	4g#\	-no	4dd\	-no	4b\	4dd\
=4	=4	=4	=4	=4	=4	=4	=4	=4	=4	=4	=4	=4	=4
*	*	*Xtuplet	*	*2\right	*	*	*	*2\right	*	*	*	*	*
!	!	!	!	!	!	!	!	!	!	!	!	!	!LO:TUP:a
4A\	.	12cc#\L	8aa\	2A\	me-	4e\	me-	2a\	me-	12cc#\L	me-	12a/L	12cc#\L
.	.	12b\	.	.	.	.	.	.	.	12b\	.	12e/	12b\
.	.	.	4a/	.	.	.	.	.	.	.	.	.	.
.	.	12a\J	.	.	.	.	.	.	.	12a\J	.	12c#/J	12a\J
*	*	*	*	*	*	*2\right	*	*	*	*2\right	*	*	*2\right
4AA/	.	2a/	.	.	.	2f#\	-o	.	.	2a\	-o	2c#/	2a\
.	.	.	4cc#\	.	.	.	.	.	.	.	.	.	.
4A\	.	.	.	4A\	-o	.	.	4a\	-o	.	.	.	.
.	.	.	8aa\	.	.	.	.	.	.	.	.	.	.
=5	=5	=5	=5	=5	=5	=5	=5	=5	=5	=5	=5	=5	=5
8d\L	.	4ff#\	4aa\	4d\	se-	4A\	se-	4a\	se-	4ff#\	se-	4dd\	4ff#\
8c#\J	6	.	.	.	.	.	.	.	.	.	.	.	.
!LO:N:vis=4	!	!	!	!	!	!	!	!	!	!	!	!	!
2B\	6\	4ee\	4aa\	4c#\	-de	4c#\	-de	4a\	-de	4ee\	-de	4cc#\	4ee\
.	.	4dd\	4gg#\	4B\	a	4d\	a	4g#\	a	4dd\	a	4b\	4dd\
!	!	!	!	!	!	!	!	!	!	!LO:LB:g=original	!	!	!
=6	=6	=6	=6	=6	=6	=6	=6	=6	=6	=6	=6	=6	=6
4A\	.	4cc#\	8aa\	2A\	dex-	2e\	dex-	2a\	dex-	(4cc#\	Dex-	4a\	4cc#\
.	.	.	4A/	.	.	.	.	.	.	.	.	.	.
4r	.	4b\	.	.	.	.	.	.	.	4b\)	.	4e/	4b\
.	.	.	4A/	.	.	.	.	.	.	.	.	.	.
4A\	.	4cc#\	.	4A\	-tris	4e\	-tris	4a\	-t(ris)	4a\	-tris	4c#/	4a\
.	.	.	8a/	.	.	.	.	.	.	.	.	.	.
!	!	!LO:LB:g=original	!LO:LB:g=original	!LO:LB:g=original	!	!LO:LB:g=original	!	!	!	!	!	!	!LO:LB:g=original
=7	=7	=7	=7	=7	=7	=7	=7	=7	=7	=7	=7	=7	=7
*	*	*	*	*	*	*	*	*	*ij	*	*	*	*
4D\	7	4cc#\	4ff#\	4D/	a	4f#\	a	4f#\	a	4cc#\	a	4a\	4cc#\
4D\	6	4b\	4bb\	4D/	dex-	4B\	dex-	4f#\	dex-	4b\	Dex-	4e/	4b\
4D\	5	4a/	4gg#\	4D/	-tris	4B\	-tris	4f#\	-t(ris)/	4a\	-tris	4c#/	4a\
!LO:LB:g=origiinal	!	!	!	!	!	!	!	!LO:LB:g=original	!	!	!	!LO:LB:g=original	!
*	*	*	*	*	*	*	*	*	*Xij	*	*	*	*
=8	=8	=8	=8	=8	=8	=8	=8	=8	=8	=8	=8	=8	=8
!	!	!	!	!	!	!	!	!	!	!	!	!LO:N:vis=00	!LO:N:vis=00
4E\	.	4g#/	4gg#\	4E\	me-	2B\	me-	4e\	me-	4g#/	me-	0.r	0.r
4G#\	6	2e/	4bb\	4G#\	.	.	.	2e\	-is	2e/	-is	.	.
4F#\	.	.	4aa\	4F#\	-is	4B\	-is	.	.	.	.	.	.
=9	=9	=9	=9	=9	=9	=9	=9	=9	=9	=9	=9	=9	=9
4E\	.	4b\	4gg#\	2E\	do-	2e\	do-	(4g#\	do-	(4b\	do-	.	.
4E\	7 5	4dd\	4bb\	.	.	.	.	4b\)	.	4dd\)	.	.	.
4E\	6 4	4cc#\	4aa\	4E\	-nec	4e\	-nec	4g#\	-nec	4cc#\	-nec	.	.
=10	=10	=10	=10	=10	=10	=10	=10	=10	=10	=10	=10	=10	=10
4E\	3	4b\	4gg#\	2E\	po-	2e\	po-	(4g#\	po-	(4b\	po-	.	.
4E\	7 5	4dd\	4bb\	.	.	.	.	4b\)	.	4dd\)	.	.	.
4E\	6 4	4cc#\	4aa\	4E\	-nam	4e\	-nam	4a\	-nam	4cc#\	-nam	.	.
=11	=11	=11	=11	=11	=11	=11	=11	=11	=11	=11	=11	=11	=11
4E\	3	4b\	4gg#\	2E\	i-	2e\	i-	(4g#\	i-	(4b\	i-	.	.
4E\	6 4	4cc#\	4aa\	.	.	.	.	4a\)	.	4cc#\)	.	.	.
4E\	7# 2	4dd#X\	4ff#\	4E\	-ni-	4A/	-ni-	4f#\	-ni-	4dd#X\	-ni-	.	.
=12	=12	=12	=12	=12	=12	=12	=12	=12	=12	=12	=12	=12	=12
!	!	!	!	!	!	!	!	!	!	!	!	!LO:N:vis=0	!LO:N:vis=0
4E\	8	4ee\	4gg#\	(4E\	-mi-	(4G#/	-mi-	4g#\	-mi-	4ee\	-mi-	1.r	1.r
4G#\	6	2e/	4bb\	4G#\)	.	4B/)	.	2g#\	-cos	2e/	-cos	.	.
4F#\	.	.	4aa\	4F#\	-cos	4B/	-cos	.	.	.	.	.	.
!	!	!	!	!	!	!	!	!	!	!LO:LB:g=original	!	!	!
=13	=13	=13	=13	=13	=13	=13	=13	=13	=13	=13	=13	=13	=13
4E\	.	4b\	4gg#\	2.E\	tu-	2.e\	tu-	(4g#\	tu-	(4b\	tu-	.	.
4E\	6 7	4cc#\	4aa\	.	.	.	.	4a\)	.	4cc#\)	.	.	.
4E\	7# 2	4dd#X\	4ff#\	.	.	.	.	4f#\	.	4dd#X\	.	.	.
=14	=14	=14	=14	=14	=14	=14	=14	=14	=14	=14	=14	=14	=14
4E\	8	8ee\	8gg#\	2E\	-os	4e\	-os	4g#\	-os	4ee\	-os	2.r	2.r
.	.	4gg#\	4bb\	.	.	.	.	.	.	.	.	.	.
4G#\	.	.	.	.	.	4r	.	4r	.	4e/	.	.	.
.	.	4ee\	4gg#\	.	.	.	.	.	.	.	.	.	.
4F#\	.	.	.	4E\	sca-	4r	.	4r	.	4r	.	.	.
.	.	8b/	8ee\	.	.	.	.	.	.	.	.	.	.
!	!	!LO:LB:g=original	!	!	!	!	!	!	!	!	!	!	!
=15	=15	=15	=15	=15	=15	=15	=15	=15	=15	=15	=15	=15	=15
4B\	2	4f#/	4dd\	4B\	-bel-	4B\	sca-	4f#\	sca-	4ddn\	sca-	4b\	4dd\
4G#\	.	4f#/	4bb\	4G#\	-lum	4B\	-bel-	4f#\	-bel-	4dd\	-bel-	4b\	4dd\
4E\	.	4g#/	4aa\	4E\	.	4B\	-lum	4f#\	-l(um)	4dd\	-lum	4b\	4dd\
!	!	!	!	!LO:LB:g=original	!	!LO:LB:g=original	!	!	!	!	!	!	!
=16	=16	=16	=16	=16	=16	=16	=16	=16	=16	=16	=16	=16	=16
!	!	!	!LO:TX:t=P:problem=t.16 zapisany repetycją	!	!	!	!	!	!	!	!	!	!
4A\	.	4a/	4dd\yy	4A\	pe-	4c#\	pe-	2f#\	pe-	(4cc#\	pe-	4a\	4cc#\
4B\	6\	4d/	4bb\yy	4B\	-dum	4d\	.	.	.	4b\)	.	4e/	4b\
4c#\	6	4e/	4aa\yy	4c#\	.	4e\	-dum	4e\	-dum	4a\	-dum	4c#/	4a\
!LO:LB:g=original	!	!	!LO:LB:g=original	!	!	!	!	!LO:LB:g=original	!	!	!	!	!
=17	=17	=17	=17	=17	=17	=17	=17	=17	=17	=17	=17	=17	=17
4d\	6	4f#/	4bb\	4d\	tu-	4A\	tu-	4f#\	tu-	4b\	tu-	2e/	2b\
*	*	*	*2\right	*	*	*	*	*	*	*	*	*	*
4e\	.	2e/	2gg#t\	4e\	-o-	2BT\	-o-	2e\	-o-	2g#\	-o-	.	.
4E\	.	.	.	4E\	.	.	.	.	.	.	.	4e/	4b\
=18	=18	=18	=18	=18	=18	=18	=18	=18	=18	=18	=18	=18	=18
4A\	5	4e/	4aa\	4A\	-rum.	4c#\	-rum	4e\	-rum	4a\	-rum	4c#/	4a\
!LO:TX:a:t=Alt c	!	!	!	!	!	!	!	!	!	!	!	!	!
4E\	.	4r	4r	4r	.	4r	.	4g#\	Vir-	4r	.	4r	4r
4F#\	6	4r	4r	4r	.	4r	.	8a\	-gam	4r	.	4r	4r
.	.	.	.	.	.	.	.	8a\	vir-	.	.	.	.
=19	=19	=19	=19	=19	=19	=19	=19	=19	=19	=19	=19	=19	=19
!	!	!	!	!	!	!LO:TX:a:t=14	!	!	!	!LO:N:vis=00	!	!LO:TX:a:t=52	!LO:TX:a:t=52
!	!	!	!	!LO:N:vis=00	!	!LO:N:vis=00	!	!	!	!	!	!LO:N:vis=00	!LO:N:vis=00
4G#\	6:	4b\	4ee\	0.r	.	0.r	.	(4b\	-tu-	0.r	.	0.r	0.r
4G#\	.	4r	4r	.	.	.	.	4e\)	.	.	.	.	.
4G#\	.	4e/	4ee\	.	.	.	.	4e\	-tis	.	.	.	.
=20	=20	=20	=20	=20	=20	=20	=20	=20	=20	=20	=20	=20	=20
4A\	.	4e/	4ccc#\	.	.	.	.	4cc#\	tu-	.	.	.	.
4G#\	6	4e/	4bb\	.	.	.	.	4b\	-ae	.	.	.	.
4F#\	6\	4d#X/	4aa\	.	.	.	.	4a\	e-	.	.	.	.
=21	=21	=21	=21	=21	=21	=21	=21	=21	=21	=21	=21	=21	=21
4E\	.	4e/	4gg#\	.	.	.	.	8g#\L	-mit-	.	.	.	.
.	.	.	.	.	.	.	.	16f#\L	.	.	.	.	.
.	.	.	.	.	.	.	.	16e\JJ	.	.	.	.	.
4G#\	6	4r	4r	.	.	.	.	2e\	-tet	.	.	.	.
4E\	.	4g#/	4ee\	.	.	.	.	.	.	.	.	.	.
=22	=22	=22	=22	=22	=22	=22	=22	=22	=22	=22	=22	=22	=22
4A\	.	4e/	4ccc#\	.	.	.	.	4cc#\	Do-	.	.	.	.
4G#\	6	4e/	4bb\	.	.	.	.	4b\	-mi-	.	.	.	.
4F#\	6\	4d#X/	4aa\	.	.	.	.	8a\	-nus	.	.	.	.
.	.	.	.	.	.	.	.	8a\	ex	.	.	.	.
!	!	!LO:LB:g=original	!	!	!	!	!	!	!	!	!	!	!
=23	=23	=23	=23	=23	=23	=23	=23	=23	=23	=23	=23	=23	=23
!	!	!	!	!LO:N:vis=00	!	!LO:N:vis=00	!	!	!	!LO:N:vis=00	!	!LO:N:vis=00	!LO:N:vis=00
4E\	.	4e/	4gg#\	0.r	.	0.r	.	8g#\L	Si-	0.r	.	0.r	0.r
.	.	.	.	.	.	.	.	8f#\J	.	.	.	.	.
4G#\	6	4r	4r	.	.	.	.	2e\	-on	.	.	.	.
4E\	.	4g#/	4ee\	.	.	.	.	.	.	.	.	.	.
!	!	!	!	!	!	!	!	!LO:LB:g=original	!	!	!	!	!
=24	=24	=24	=24	=24	=24	=24	=24	=24	=24	=24	=24	=24	=24
4C#/	6	4a/	4ee\	.	.	.	.	(4e\	Do-	.	.	.	.
4D/	.	4a/	4ff#\	.	.	.	.	4f#\)	.	.	.	.	.
4BB/	6\	4dd\	4gg#\	.	.	.	.	4g#\	-mi-	.	.	.	.
=25	=25	=25	=25	=25	=25	=25	=25	=25	=25	=25	=25	=25	=25
4AA/	.	4cc#\	4aa\	.	.	.	.	4a\	-na-	.	.	.	.
4BB/	6\	4r	4gg#\	.	.	.	.	4g#\	.	.	.	.	.
4C#/	6	4e/	4aa\	.	.	.	.	4a\	-re	.	.	.	.
!	!	!	!LO:LB:g=original	!	!	!	!	!	!	!	!	!	!
=26	=26	=26	=26	=26	=26	=26	=26	=26	=26	=26	=26	=26	=26
!LO:LB:g=original	!	!	!	!	!	!	!	!	!	!	!	!	!
4C#/	.	4a/	4ee\	.	.	.	.	4e\	in	.	.	.	.
4D/	6	4r	4ff#\	.	.	.	.	4f#\	me-	.	.	.	.
4BB/	6\	4r	4gg#\	.	.	.	.	8g#\	-di-	.	.	.	.
.	.	.	.	.	.	.	.	8g#\	-o	.	.	.	.
=27	=27	=27	=27	=27	=27	=27	=27	=27	=27	=27	=27	=27	=27
!	!	!LO:TX:a:t=3	!	!LO:N:vis=00	!	!LO:N:vis=00	!	!	!	!LO:N:vis=00	!	!	!
!	!	!LO:N:vis=0	!	!	!	!	!	!	!	!	!	!LO:N:vis=00	!LO:N:vis=00
4AA/	.	1.r	4aa\	0.r	.	0.r	.	4a\	i-	0.r	.	0.r	0.r
4C#/	.	.	4a/	.	.	.	.	4a\	-ni-	.	.	.	.
4AA/	.	.	4r	.	.	.	.	4a\	-mi-	.	.	.	.
=28	=28	=28	=28	=28	=28	=28	=28	=28	=28	=28	=28	=28	=28
4E\	.	.	4ee\	.	.	.	.	(4g#\	-co-	.	.	.	.
4F#\	6\	.	4dd#X\	.	.	.	.	4f#\)	.	.	.	.	.
4G#\	.	.	4ee\	.	.	.	.	4e\	-rum	.	.	.	.
=29	=29	=29	=29	=29	=29	=29	=29	=29	=29	=29	=29	=29	=29
4A\	6	2.r	4ff#\	.	.	.	.	4f#\	tu-	.	.	.	.
4B\	.	.	2dd#Xt\	.	.	.	.	2d#X\	-o-	.	.	.	.
4BB/	#	.	.	.	.	.	.	.	.	.	.	.	.
=30	=30	=30	=30	=30	=30	=30	=30	=30	=30	=30	=30	=30	=30
4E\	.	4gg#\	4ee\	.	.	.	.	4e\	-rum	.	.	.	.
4E\	.	4ee\	4bb\	.	.	.	.	4r	.	.	.	.	.
4G#\	5-	4ee\	4bb\	.	.	.	.	4r	.	.	.	.	.
=31	=31	=31	=31	=31	=31	=31	=31	=31	=31	=31	=31	=31	=31
!	!	!	!	!LO:N:vis=00	!	!LO:N:vis=0	!	!LO:N:vis=00	!	!LO:N:vis=00	!	!LO:N:vis=00	!LO:N:vis=00
4A\	9	4cc#\	4bb\	0.r	.	1.r	.	0.r	.	0.r	.	0.r	0.r
4AA/	.	4cc#\	8aa\L	.	.	.	.	.	.	.	.	.	.
.	.	.	8gg#\J	.	.	.	.	.	.	.	.	.	.
4A\	8	4cc#\	4aa\	.	.	.	.	.	.	.	.	.	.
=32	=32	=32	=32	=32	=32	=32	=32	=32	=32	=32	=32	=32	=32
4D\	6	4dd\	4bb\	.	.	.	.	.	.	.	.	.	.
*	*	*2\right	*	*	*	*	*	*	*	*	*	*	*
4E\	.	2bT\	2gg#t\	.	.	.	.	.	.	.	.	.	.
4EE/	.	.	.	.	.	.	.	.	.	.	.	.	.
=33	=33	=33	=33	=33	=33	=33	=33	=33	=33	=33	=33	=33	=33
4AA/	.	4cc#\	4aa\	.	.	4r	.	.	.	.	.	.	.
4A\	.	4r	4r	.	.	4c#\	Te-	.	.	.	.	.	.
4B\	7	4r	4r	.	.	8d\	-cum	.	.	.	.	.	.
.	.	.	.	.	.	8d\	prin-	.	.	.	.	.	.
!	!	!LO:LB:g=original	!LO:LB:g=original	!	!	!	!	!	!	!	!	!	!
=34	=34	=34	=34	=34	=34	=34	=34	=34	=34	=34	=34	=34	=34
4c#\	6	4ee\	4aa\	.	.	4.e\	-ci-	.	.	.	.	.	.
4c#\	.	4ee\	4a/	.	.	.	.	.	.	.	.	.	.
.	.	.	.	.	.	8A/	-pi-	.	.	.	.	.	.
4c#\	.	4ee\	4a/	.	.	4A/	-um	.	.	.	.	.	.
!LO:LB:g=original	!	!	!	!	!	!	!	!	!	!	!	!	!
=35	=35	=35	=35	=35	=35	=35	=35	=35	=35	=35	=35	=35	=35
!	!	!	!	!LO:N:vis=00	!	!	!	!LO:N:vis=00	!	!LO:N:vis=00	!	!LO:N:vis=00	!LO:N:vis=00
4d\	.	4dd\	4a/	0.r	.	4f#\	in	0.r	.	0.r	.	0.r	0.r
4c#\	6	4ee\	4r	.	.	4e\	di-	.	.	.	.	.	.
4B\	6\	4gg#\	4r	.	.	8d\	-e	.	.	.	.	.	.
.	.	.	.	.	.	8d\	vir-	.	.	.	.	.	.
!	!	!	!	!	!	!LO:LB:g=original	!	!	!	!	!	!	!
=36	=36	=36	=36	=36	=36	=36	=36	=36	=36	=36	=36	=36	=36
4A\	.	4aa\	2.r	.	.	12c#\L	-tu-	.	.	.	.	.	.
.	.	.	.	.	.	12B\	-tis	.	.	.	.	.	.
.	.	.	.	.	.	12A\J	tu-	.	.	.	.	.	.
4c#\	.	4r	.	.	.	2A\	-ae	.	.	.	.	.	.
4A\	6	4r	.	.	.	.	.	.	.	.	.	.	.
=37	=37	=37	=37	=37	=37	=37	=37	=37	=37	=37	=37	=37	=37
*	*	*	*	*	*	*	*ij	*	*	*	*	*	*
4d\	.	4a/	4a/	.	.	4f#\	vir-	.	.	.	.	.	.
4c#\	6	4a/	4a/	.	.	4e\	-tu-	.	.	.	.	.	.
4B\	6\	4g#/	4a/	.	.	4d\	-tis	.	.	.	.	.	.
=38	=38	=38	=38	=38	=38	=38	=38	=38	=38	=38	=38	=38	=38
4A\	.	4a/	4a/	.	.	12c#\L	tu-	.	.	.	.	.	.
.	.	.	.	.	.	12B\	.	.	.	.	.	.	.
.	.	.	.	.	.	12A\J	.	.	.	.	.	.	.
4c#\	.	4r	4r	.	.	2A\	-e	.	.	.	.	.	.
4A\	.	4r	4r	.	.	.	.	.	.	.	.	.	.
*	*	*	*	*	*	*	*Xij	*	*	*	*	*	*
=39	=39	=39	=39	=39	=39	=39	=39	=39	=39	=39	=39	=39	=39
!	!	!LO:N:vis=00	!	!LO:N:vis=00	!	!	!	!LO:N:vis=00	!	!LO:N:vis=00	!	!LO:N:vis=00	!LO:N:vis=00
4B\	-	0.r	2.r	0.r	.	4r	.	0.r	.	0.r	.	0.r	0.r
4G#\	6 5	.	.	.	.	4d\	in	.	.	.	.	.	.
4E\	7	.	.	.	.	4d\	splen-	.	.	.	.	.	.
=40	=40	=40	=40	=40	=40	=40	=40	=40	=40	=40	=40	=40	=40
4A\	.	.	4aa\	.	.	4.c#\	-do-	.	.	.	.	.	.
4B\	6\	.	4gg#\	.	.	.	.	.	.	.	.	.	.
.	.	.	.	.	.	8B\	-ri-	.	.	.	.	.	.
!	!	!	!LO:TX:a:t=P:problem=mixed beam	!	!	!	!	!	!	!	!	!	!
4c#\	.	.	8aa\L	.	.	4A\	-bus	.	.	.	.	.	.
.	.	.	8a/J	.	.	.	.	.	.	.	.	.	.
=41	=41	=41	=41	=41	=41	=41	=41	=41	=41	=41	=41	=41	=41
4A\	.	.	4cc#\	.	.	4A\	San-	.	.	.	.	.	.
4G#\	5	.	4b\	.	.	(4d\	-cto-	.	.	.	.	.	.
4A\	.	.	4a\	.	.	4c#\)	.	.	.	.	.	.	.
=42	=42	=42	=42	=42	=42	=42	=42	=42	=42	=42	=42	=42	=42
4E\	.	.	2.g#/	.	.	2B\	-rum	.	.	.	.	.	.
4D\	# 2	.	.	.	.	.	.	.	.	.	.	.	.
4C#/	6	.	.	.	.	4e\	ex	.	.	.	.	.	.
!	!	!	!	!	!	!LO:LB:g=original	!	!	!	!	!	!	!
=43	=43	=43	=43	=43	=43	=43	=43	=43	=43	=43	=43	=43	=43
!	!	!LO:N:vis=00	!	!LO:N:vis=00	!	!	!	!LO:N:vis=00	!	!LO:N:vis=00	!	!LO:N:vis=00	!LO:N:vis=00
4D\	.	0.r	4a/	0.r	.	4.f#\	u-	0.r	.	0.r	.	0.r	0.r
4E\	.	.	4a/	.	.	.	.	.	.	.	.	.	.
.	.	.	.	.	.	8e\	-te-	.	.	.	.	.	.
4E\	.	.	4a/	.	.	8f#\L	-ro	.	.	.	.	.	.
.	.	.	.	.	.	8d\J	.	.	.	.	.	.	.
!LO:LB:g=original	!	!	!LO:LB:g=original	!	!	!	!	!	!	!	!	!	!
=44	=44	=44	=44	=44	=44	=44	=44	=44	=44	=44	=44	=44	=44
4AA/	.	.	4a/	.	.	4e\	an-	.	.	.	.	.	.
4A\	.	.	4r	.	.	4A\	-te	.	.	.	.	.	.
4Gn\	4 2	.	4r	.	.	4d\	lu-	.	.	.	.	.	.
=45	=45	=45	=45	=45	=45	=45	=45	=45	=45	=45	=45	=45	=45
!	!	!	!LO:N:vis=0	!	!	!	!	!	!	!	!	!	!
4F#\	.	.	1.r	.	.	4.d\	-ci-	.	.	.	.	.	.
4E\	6	.	.	.	.	.	.	.	.	.	.	.	.
.	6\	.	.	.	.	8e\	-fe-	.	.	.	.	.	.
4D\	.	.	.	.	.	4f#\	-rum	.	.	.	.	.	.
=46	=46	=46	=46	=46	=46	=46	=46	=46	=46	=46	=46	=46	=46
4Gn\	56	.	.	.	.	(8e\L	ge-	.	.	.	.	.	.
.	.	.	.	.	.	8d\J)	.	.	.	.	.	.	.
4A\	.	.	.	.	.	4A\	.	.	.	.	.	.	.
4AA/	.	.	.	.	.	8c#\	-nu-	.	.	.	.	.	.
.	.	.	.	.	.	8c#\	-i	.	.	.	.	.	.
!	!	!	!	!	!	!	!	!LO:LB:g=original	!	!	!	!	!
=47	=47	=47	=47	=47	=47	=47	=47	=47	=47	=47	=47	=47	=47
!	!	!	!	!	!	!	!	!	!	!	!	!LO:N:vis=00	!LO:N:vis=00
4D\	7	4dd\	4ff#\	4D\	Ju-	4d\	te	4f#\	Ju-	4dd\	Ju-	0.r	0.r
4D\	.	4dd\	4ff#\	4D\	-ra-	4r	.	4f#\	-ra-	4dd\	-ra-	.	.
4E\	6	4cc#\	4ggn\	4E\	-vit	4r	.	4gn\	-vit	4cc#\	-vit	.	.
=48	=48	=48	=48	=48	=48	=48	=48	=48	=48	=48	=48	=48	=48
4.G#\	.	4dd\	4.aa\	4.F#\	Do-	2d\	et	4.a\	Do-	4.dd\	Do-	.	.
.	.	4dd\	.	.	.	.	.	.	.	.	.	.	.
8E\L	.	.	8dd\	8E\	-mi-	.	.	8a\	-mi-	8dd\	-mi-	.	.
8F#\	.	4dd\	4dd\	4D\	-nus	4d\	n(on)	4a\	-nus	4dd\	-nus	.	.
8D\J	.	.	.	.	.	.	.	.	.	.	.	.	.
!	!	!LO:LB:g=original	!	!	!	!	!	!	!	!	!	!	!
=49	=49	=49	=49	=49	=49	=49	=49	=49	=49	=49	=49	=49	=49
4Gn\	.	4dd\	4bb\	4Gn\	et	2d\	poe-	4b\	et	4dd\	et	.	.
4F#\	6	4dd\	4aa\	4F#\	n(on)	.	.	4a\	.	4dd\	n(on)	.	.
4E\	6\	4cc#\	4ggn\	8E\	poe-	4e\	-ni-	4gn\	non	8cc#\	pae-	.	.
.	.	.	.	8E\	-ni-	.	.	.	.	8cc#\	-ni-	.	.
!	!	!	!	!LO:LB:g=original	!	!LO:LB:g=original	!	!	!	!	!	!	!
=50	=50	=50	=50	=50	=50	=50	=50	=50	=50	=50	=50	=50	=50
*	*	*	*Xtuplet	*	*	*	*	*	*	*	*	*	*
4.D\	.	4dd\	12ff#\L	4.D\	-te-	2f#\	-te-	4.f#\	poe-	2dd\	-te-	.	.
.	.	.	12ee\	.	.	.	.	.	.	.	.	.	.
.	.	.	12dd\J	.	.	.	.	.	.	.	.	.	.
.	.	4dd\	2dd\	.	.	.	.	.	.	.	.	.	.
8E\	.	.	.	8E\	.	.	.	8g#\	-ni-	.	.	.	.
8F#\L	.	4dd\	.	8F#\L	-bit	4d\	-bit	8a\L	-te-	4dd\	-bit	.	.
8D\J	.	.	.	8E\J	.	.	.	8f#\J	.	.	.	.	.
=51	=51	=51	=51	=51	=51	=51	=51	=51	=51	=51	=51	=51	=51
!	!	!	!	!	!	!	!	!	!	!	!	!LO:N:vis=00	!LO:N:vis=00
4Gn\	.	4dd\	4bb\	4Gn\	e-	(2d\	e-	4b\	.	2dd\	e-	0.r	0.r
4F#\	6	4dd\	4aa\	4F#\	.	.	.	4a\	.	.	.	.	.
4E\	6\	4cc#\	4gg#\	4E\	.	4e\)	-um	4g#\	-bit	4cc#\	-um	.	.
!LO:LB:g=original	!	!	!	!	!	!	!	!	!	!	!	!	!
=52	=52	=52	=52	=52	=52	=52	=52	=52	=52	=52	=52	=52	=52
*	*	*	*	*	*	*	*ij	*	*	*	*ij	*	*
4.D\	.	4dd\	12ff#\L	2D/	.	4f#\	e-	4.f#\	e-	2dd\	e-	.	.
.	.	.	12ee\	.	.	.	.	.	.	.	.	.	.
.	.	.	12dd\J	.	.	.	.	.	.	.	.	.	.
.	.	8ff#\L	2dd\	.	.	2d\	-um	.	.	.	.	.	.
8E\L	.	8gg#\	.	.	.	.	.	8gn\	.	.	.	.	.
8F#\	.	8aa\	.	4D/	-um	.	.	8a\L	-um	4dd\	-um	.	.
8D\J	.	8ff#\J	.	.	.	.	.	8f#\J	.	.	.	.	.
*	*	*	*	*	*	*	*Xij	*	*	*	*Xij	*	*
!	!	!	!LO:LB:g=original	!	!	!	!	!LO:LB:g=original	!	!LO:LB:g=original	!	!	!
=53	=53	=53	=53	=53	=53	=53	=53	=53	=53	=5l3	=53	=53	=53
4AA/	.	4ee\	4ee\	4AA/	tu	4e\	tu	4e\	tu	(4cc#\	tu	.	.
4A\	6 4	4dd\	4ff#\	2A\	es	4d\	es	4f#\	es	4dd\)	.	.	.
4A\	7# 2	4b\	4gg#X\	.	.	4d\	ſa-	4g#X\	ſa-	4b\	es	.	.
=54	=54	=54	=54	=54	=54	=54	=54	=54	=54	=54	=54	=54	=54
4A\	8	8cc#\L	8aa\L	2A\	ſa-	4c#\	-cer-	8a\L	-cer-	8cc#\L	sa-	.	.
.	.	8b\J	8gg#\J	.	.	.	.	8g#\J	.	8b\J	-cer-	.	.
4A\	.	2cc#\	2aa\	.	.	2e\	-dos	2a\	-dos	2cc#\	-dos	.	.
4A\	.	.	.	4A\	-cer-	.	.	.	.	.	.	.	.
=55	=55	=55	=55	=55	=55	=55	=55	=55	=55	=55	=55	=55	=55
!	!	!	!	!	!	!	!	!	!	!	!	!LO:N:vis=00	!LO:N:vis=00
4A\	.	4cc#\	4ee\	2A\	-dos	(4e\	in	(4e\	in	(4cc#\	in	0.r	0.r
4A\	6 7	4dd\	4ff#\	.	.	4d\)	ae-	4f#\)	.	4dd\)	.	.	.
4A\	7# 2	4b\	4gg#X\	4A\	in	4d\	.	4g#\	ae-	4b\	ae-	.	.
!	!	!LO:LB:g=original	!	!	!	!	!	!	!	!	!	!	!
=56	=56	=56	=56	=56	=56	=56	=56	=56	=56	=56	=56	=56	=56
4A\	8	8cc#\L	4aa\	2A\	ae-	(4c#\	-ter-	2a\	-ter-	2cc#\	-ter-	.	.
.	.	8b\J	.	.	.	.	.	.	.	.	.	.	.
4A\	.	2cc#\	4a/	.	.	4e\)	.	.	.	.	.	.	.
4A\	.	.	4a/	4A\	-ter-	4e\	-num	4a\	-num	4cc#\	-num	.	.
=57	=57	=57	=57	=57	=57	=57	=57	=57	=57	=57	=57	=57	=57
4A\	.	4cc#\	4ggn\	4A\	-num	4e\	se-	4gn\	se-	4cc#\	se-	.	.
4A\	.	4cc#\	4gg\	4A\	se-	4e\	-cun-	4g\	-cun-	4cc#\	-cun-	.	.
4c#\	.	4ee\	4gg\	4c#\	-cun-	4e\	-d(um)	4g\	-dum	4cc#\	-dum	.	.
=58	=58	=58	=58	=58	=58	=58	=58	=58	=58	=58	=58	=58	=58
4d\	.	4a/	4.ff#\	4d\	-dum	4.A/	or-	4.f#\	or-	4.dd\	or-	.	.
8D\L	.	8f#/L	.	8D/L	or-	.	.	.	.	.	.	.	.
8E\J	.	8gn/J	8ee\	8E/J	-di-	8A/	-di-	8e\	-di-	8cc#\	-di-	.	.
4F#\	.	4a/	4dd\	4F#\	-n(em)	4A/	-nem	4f#\	-nem	4dd\	-nem	.	.
!	!	!	!	!	!LO:LB:g=original	!LO:LB:g=original	!	!	!	!	!	!	!
=59	=59	=59	=59	=59	=59	=59	=59	=59	=59	=59	=59	=59	=59
!	!	!	!	!	!	!	!	!	!	!	!	!LO:N:vis=00	!LO:N:vis=00
4Gn\	.	4b/	4ee\	4Gn\	Mel-	4B\	Mel-	4e\	mel-	4ee\	Mel-	0.r	0.r
4A\	.	4a/	4a/	4A\	-chi-	4A\	-chi-	4.e\	-chi-	4a\	-chi-	.	.
4AA/	.	4e/	4cc#\	4AA/	-se-	4A\	-se-	.	.	4cc#\	-se-	.	.
.	.	.	.	.	.	.	.	8e\	-se-	.	.	.	.
!LO:LB:g=original	!	!	!	!	!	!	!	!	!	!LO:LB:g=original	!	!	!
=60	=60	=60	=60	=60	=60	=60	=60	=60	=60	=60	=60	=60	=60
!LO:TX:a:t=|	!	!	!	!	!	!	!	!	!	!	!	!	!
4D\	.	4f#/	4dd\	4D/	-dech	4A\	-dech.	4f#\	-dech	4dd\	-dech	.	.
!LO:TX:a:t=|	!	!	!	!	!	!	!	!	!	!	!	!	!
4F#\	.	4r	4r	4r	.	4r	.	4r	.	4r	.	.	.
!LO:TX:a:t=|	!	!	!	!	!	!	!	!	!	!	!	!	!
4A\	.	4r	4r	4r	.	4r	.	4r	.	4r	.	.	.
!	!	!	!LO:LB:g=original	!	!	!	!	!LO:LB:g=original	!	!	!	!	!
=61	=61	=61	=61	=61	=61	=61	=61	=61	=61	=61	=61	=61	=61
!	!	!	!	!	!	!LO:TX:a:t=10	!	!LO:N:vis=00	!	!LO:N:vis=00	!	!	!
!	!	!LO:Nvis=00	!	!	!	!LO:N:vis=00	!	!	!	!	!	!	!
4D\	.	0.r	2.r	4.d\	Do-	0.r	.	0.r	.	0.r	.	.	.
4G#\	6	.	.	.	.	.	.	.	.	.	.	.	.
.	.	.	.	8A\	-mi-	.	.	.	.	.	.	.	.
4G#\	5	.	.	4A\	-nus	.	.	.	.	.	.	.	.
=62	=62	=62	=62	=62	=62	=62	=62	=62	=62	=62	=62	=62	=62
4F#\	.	.	4dd\	4A\	a	.	.	.	.	.	.	.	.
4Gn\	.	.	4dd\	4B\	dex-	.	.	.	.	.	.	.	.
4E\	6\	.	4ggn\	4c#\	-tris	.	.	.	.	.	.	.	.
=63	=63	=63	=63	=63	=63	=63	=63	=63	=63	=63	=63	=63	=63
!	!	!	!	!	!	!	!	!	!	!	!	!LO:N:vis=00	!LO:N:vis=00
4D\	.	.	4ff#\	4d\	tu-	.	.	.	.	.	.	0.r	0.r
4F#\	.	.	4r	4D/	.	.	.	.	.	.	.	.	.
4F#\	.	.	4r	4A\	-is	.	.	.	.	.	.	.	.
=64	=64	=64	=64	=64	=64	=64	=64	=64	=64	=64	=64	=64	=64
4Gn\	.	.	8r	8B\L	con-	.	.	.	.	.	.	.	.
.	.	.	8gn/L	8A\J	-fre-	.	.	.	.	.	.	.	.
4G\	.	.	8b/	4.Gn\	-git	.	.	.	.	.	.	.	.
.	.	.	8dd/J	.	.	.	.	.	.	.	.	.	.
4G\	.	.	4gg#\	.	.	.	.	.	.	.	.	.	.
.	.	.	.	8B\	in	.	.	.	.	.	.	.	.
=65	=65	=65	=65	=65	=65	=65	=65	=65	=65	=65	=65	=65	=65
!	!	!LO:N:vis=00	!	!	!	!LO:N:vis=00	!	!LO:N:vis=00	!	!LO:N:vis=00	!	!	!
4A\	.	0.r	8r	8c#\L	di-	0.r	.	0.r	.	0.r	.	.	.
.	.	.	8A/L	8A\J	.	.	.	.	.	.	.	.	.
4A\	.	.	8c#/	4.A\	-e	.	.	.	.	.	.	.	.
.	.	.	8e/J	.	.	.	.	.	.	.	.	.	.
8F#\L	.	.	4a/	.	.	.	.	.	.	.	.	.	.
8E\J	.	.	.	8d\	in	.	.	.	.	.	.	.	.
!	!	!	!	!LO:LB:g=original	!	!	!	!	!	!	!	!	!
=66	=66	=66	=66	=66	=66	=66	=66	=66	=66	=66	=66	=66	=66
4A\	.	.	4A/	8c#\	di-	.	.	.	.	.	.	.	.
.	.	.	.	8B\	-e	.	.	.	.	.	.	.	.
4r	.	.	4r	8A\	i-	.	.	.	.	.	.	.	.
.	.	.	.	8Gn\	-rae	.	.	.	.	.	.	.	.
4r	.	.	4r	8F#\	su-	.	.	.	.	.	.	.	.
.	.	.	.	8E\	-ae	.	.	.	.	.	.	.	.
=67	=67	=67	=67	=67	=67	=67	=67	=67	=67	=67	=67	=67	=67
!	!	!	!	!	!	!	!	!	!	!	!	!LO:N:vis=00	!LO:N:vis=00
8D\L	.	.	2.r	(8D\L	re-	.	.	.	.	.	.	0.r	0.r
8G#\J	.	.	.	8F#\J)	.	.	.	.	.	.	.	.	.
4A\	.	.	.	(4A\	.	.	.	.	.	.	.	.	.
4AA/	.	.	.	4AA/)	.	.	.	.	.	.	.	.	.
!LO:LB:g=original	!	!	!	!	!	!	!	!	!	!	!	!	!
=68	=68	=68	=68	=68	=68	=68	=68	=68	=68	=68	=68	=68	=68
4D\	.	.	4ff#\	4D/	-ges	.	.	.	.	.	.	.	.
4F#\	.	.	4aa\	4r	.	.	.	.	.	.	.	.	.
4G#X\	5-	.	4bb\	4d\	in	.	.	.	.	.	.	.	.
!	!	!	!LO:LB:g=original	!	!	!	!	!	!	!	!	!	!
=69	=69	=69	=69	=69	=69	=69	=69	=69	=69	=69	=69	=69	=69
!	!	!LO:N:vis=0	!	!	!	!LO:N:vis=0	!	!LO:N:vis=0	!	!LO:N:vis=0	!	!	!
4A\	.	1.r	4ee\	8c#\	di-	1.r	.	1.r	.	1.r	.	.	.
.	.	.	.	8B\	-e	.	.	.	.	.	.	.	.
4r	.	.	4r	8A\	i-	.	.	.	.	.	.	.	.
.	.	.	.	8G#X\	-rae	.	.	.	.	.	.	.	.
4D\	6	.	4r	8A\	su-	.	.	.	.	.	.	.	.
.	.	.	.	8B\	-ae	.	.	.	.	.	.	.	.
=70	=70	=70	=70	=70	=70	=70	=70	=70	=70	=70	=70	=70	=70
8C#/L	8	.	2.r	8c#\L	re-	.	.	.	.	.	.	.	.
8D/J	.	.	.	8A\J	.	.	.	.	.	.	.	.	.
4E\	.	.	.	4E\	.	.	.	.	.	.	.	.	.
4EE/	.	.	.	4G#\	.	.	.	.	.	.	.	.	.
!	!	!	!	!LO:LB:g=original	!	!	!	!	!	!	!	!	!LO:LB:g=original
=71	=71	=71	=71	=71	=71	=71	=71	=71	=71	=71	=71	=71	=71
4AA/	.	4r	4r	4A\	-ges	4r	.	4r	.	4r	.	4r	4r
4A\	.	4a/	4cc#\	4A\	ju-	4e\	ju-	4a\	Ju-	4cc#\	Ju-	4a\	4cc#\
4B\	6\	4g#/	4dd\	4B\	-di-	4d\	-di-	4g#\	-di-	4dd\	-di-	4b\	4dd\
!	!	!LO:LB:g=original	!	!	!	!	!	!	!	!	!	!LO:LB:g=original	!
=72	=72	=72	=72	=72	=72	=72	=72	=72	=72	=72	=72	=72	=72
4c#\	6	4a/	4ee\	4c#\	-ca-	(4c#\	-ca-	2a\	-ca-	(8ee\L	-ca-	4cc#\	4ee\
.	.	.	.	.	.	.	.	.	.	8a\J)	.	.	.
4c#\	.	4a/	4a/	4c#\	-bit	4e\)	.	.	.	2a\	-bit	4c#/	4a\
4c#\	.	4a/	4a/	4c#\	in	4e\	-bit	4a\	-bit	.	.	4c#/	4a\
=73	=73	=73	=73	=73	=73	=73	=73	=73	=73	=73	=73	=73	=73
4d\	.	4a/	4ff#\	4d\	na-	4A\	in	4a\	in	4ff#\	in	4dd\	4ff#\
4c#\	6	4a/	4ee\	4c#\	-ti-	4A\	na-	4a\	na-	4ee\	na-	4cc#\	4ee\
4B\	6\	4a/	4dd\	4B\	-o-	4d\	-ti-	4g#\	-ti-	4dd\	-tio-	4b\	4dd\
=74	=74	=74	=74	=74	=74	=74	=74	=74	=74	=74	=74	=74	=74
!	!	!	!	!	!	!	!	!	!	!	!	!LO:TX:a:t=P:problem=mixed beam	!
4.A\	.	4a/	4cc#\	4.A\	-ni-	4.e\	-o-	4.a\	-o-	8cc#\	-ni-	8a\L	8cc#\L
.	.	.	.	.	.	.	.	.	.	8b\	-bus	8e/J	8b\J
.	.	4a/	4a/	.	.	.	.	.	.	2a\	im-	2c#/	2a\
8B\L	.	.	.	8A\	-bus	8e\	-ni-	8a\	-ni-	.	.	.	.
8c#\	.	4a/	4a/	4A\	.	4e\	-bus	4a\	-bus	.	.	.	.
8A\J	.	.	.	.	.	.	.	.	.	.	.	.	.
!LO:LB:g=original	!	!	!	!	!	!	!	!	!	!	!	!	!
=75	=75	=75	=75	=75	=75	=75	=75	=75	=75	=75	=75	=75	=75
4d\	.	4a/	4ff#\	4d\	im-	4d\	im-	4a\	im-	4ff#\	-ple-	4dd\	4ff#\
4c#\	6\	4a/	4ee\	4c#\	-ple-	4A\	-ple-	4a\	-ple-	4ee\	-bit	4cc#\	4ee\
4B\	6	4g#u/	4dd\	8B\	-bit	8B\	-bit	8g#\	-bit	8dd\	ru-	4b\	4dd\
.	.	.	.	8B\	ru-	8B\	ru-	8g#\	ru-	8dd\	-i-	.	.
!	!	!	!	!	!	!LO:LB:g=original	!	!	!	!LO:LB:g=original	!	!	!
=76	=76	=76	=76	=76	=76	=76	=76	=76	=76	=76	=76	=76	=76
!	!	!	!	!	!	!	!	!	!	!	!	!LO:TUP:a	!LO:TUP:a
4A\	.	4a/	4cc#\	4A\	-i-	4c#\	-i-	4a\	-i-	12cc#\L	.	12a\L	12cc#\L
.	.	.	.	.	.	.	.	.	.	12b\	.	12e\	12b\
.	.	.	.	.	.	.	.	.	.	12a\J	.	12c#\J	12a\J
4A\	.	4r	8a/	4A\	-nas	4c#\	-nas	4a\	-nas	4a\	-nas	4cc#\	4ee\
.	.	.	4ee\	.	.	.	.	.	.	.	.	.	.
4r	.	4r	.	4r	.	4r	.	4r	.	8ee\	con-	4cc#\	4ee\
.	.	.	8ee\	.	.	.	.	.	.	8ee\	-quaſ-	.	.
=77	=77	=77	=77	=77	=77	=77	=77	=77	=77	=77	=77	=77	=77
*	*	*	*	*	*	*	*	*	*	*	*	*2\right	*
8G#\L	6	8b/L	2eeT\	(8G#\L	con-	4.e\	con-	8b\	con-	2ee\	-sa-	2cc#\	2ee\
8F#\J	.	8a/	.	8F#\J)	.	.	.	8a\	-quas-	.	.	.	.
!	!	!	!	!	!	!	!	!LO:LB:g=original	!	!	!	!	!
8E\L	.	8g#/	.	(8E\L	-quaſ-	.	.	8g#\L	-sa-	.	.	.	.
8F#\	.	8a/	.	8F#\J)	.	8e\	-quaſ-	8a\J	.	.	.	.	.
8G#\	.	8b/	4ee\	8G#\	-sa-	8e\	-sa-	8b\L	-bit	4ee\	-bit	4cc#\	4ee\
8E\J	.	8g#/J	.	8E\	-bit	8e\	-bit	8g#\J	.	.	.	.	.
!	!	!	!LO:LB:g=original	!LO:LB:g=original	!	!	!	!	!	!	!	!	!
=78	=78	=78	=78	=78	=78	=78	=78	=78	=78	=78	=78	=78	=78
8A\L	.	8cc#\L	4.ee\	8A\L	.	8c#\L	ca-	4.a\	ca-	4.ee\	ca-	4.cc#\	4.ee\
8B\	.	8dd\	.	8B\	.	8d\J	.	.	.	.	.	.	.
8c#\	.	8ee\	.	8c#\J	ca-	8e\L	-pi-	.	.	.	.	.	.
8B\	.	8dd\	8ee\L	8B\	-pi-	8d\J	.	8a\	-pi-	8ee\	-pi-	8cc#\L	8ee\L
8c#\	.	8ee\	8ee\	8c#\	-ta	8e\	-ta	4a\	-ta	8ee\	-ta	8cc#\	8ee\
8G#\J	.	8cc#\J	8ee\J	8G#\	in	8e\	in	.	.	8dd\	in	8b\J	8dd\J
!	!	!LO:LB:g=original	!	!	!	!	!	!	!	!	!	!	!LO:LB:g=original
=79	=79	=79	=79	=79	=79	=79	=79	=79	=79	=79	=79	=79	=79
4A\	.	4a/	4cc#\	(4A\	ter-	(4e\	ter-	4a\	in	(4cc#\	ter-	4a\	4cc#\
4B\	6\	4g#/	4b\	4B\)	.	4d\)	.	4g#\	ter-	4b\)	.	4e/	4b\
4c#\	.	4a/	4a/	4c#\	-ra	4c#\	-ra	4a\	-ra	4a\	-ra	4c#/	4a\
!	!	!	!	!	!	!	!	!	!	!	!	!LO:LB:g=original	!
=80	=80	=80	=80	=80	=80	=80	=80	=80	=80	=80	=80	=80	=80
4d\	.	4a/	4b\	4d\	mul-	4A/	mul-	4f#\	mul-	4b\	mul-	2.r	2.r
4e\	6 4	4a/	4cc#\	4e\	-tu-	(4A/	-to-	2e\	-to-	(4e/	-to-	.	.
4F#\	.	4g#/	8b\L	4E\	.	4G#/)	.	.	.	4g#/)	.	.	.
.	.	.	8a\J	.	.	.	.	.	.	.	.	.	.
=81	=81	=81	=81	=81	=81	=81	=81	=81	=81	=81	=81	=81	=81
4A\	.	4a/	4a/	4A\	-rum	4A\	-rum	4e\	-rum	4a\	-rum	4c#/	4a\
4F#\	-	4cc#\	4aa\	4F#\	de	4c#\	de	4a\	de	4cc#\	de	4a\	4cc#\
4F#\	.	4cc#\	4aa\	4F#\	ter-	4A\	ter-	4a\	tor-	4cc#\	tor-	4a\	4cc#\
!LO:LB:g=original	!	!	!	!	!	!LO:LB:g=original	!	!	!	!LO:LB:g=original	!	!	!
=82	=82	=82	=82	=82	=82	=82	=82	=82	=82	=82	=82	=82	=82
4F#\	.	4cc#\	4aa\	4F#\	-ren-	4F#/	-ren-	4a\	-ren-	4cc#\	-ren-	4a\	4cc#\
4F#\	6 4	4dd\	4bb\	4F#\	-te	4F#/	-te	4b\	-te	4dd\	-te	4b\	4dd\
4F#\	3	4cc#\	4aa\	4F#\	in	4F#/	in	4a\	in	4cc#\	in	4a\	4cc#\
=83	=83	=83	=83	=83	=83	=83	=83	=83	=83	=83	=83	=83	=83
4F#\	2	4b\	4gg#\	4F#\	vi-	2G#/	vi-	2g#\	vi-	(4b\	vi-	4e/	4b\
4E#X\	6	4cc#\	4gg#\	2E#X\	-a	.	.	.	.	4cc#\)	.	4a\	4cc#\
4E#\	5	4b\	4gg#\	.	.	4c#\	-a	4g#\	-a	4b\	-a	4e/	4b\
!	!	!	!	!	!	!	!	!LO:LB:g=original	!	!	!	!	!
=84	=84	=84	=84	=84	=84	=84	=84	=84	=84	=84	=84	=84	=84
!	!	!	!	!	!	!	!	!	!	!	!	!LO:TX:a:t=3	!LO:N:vis=0
!	!	!	!	!	!	!	!	!	!	!	!	!LO:N:vis=0	!
4G#\	.	4a/	4ff#\	4F#\	bi-	4c#\	bi-	4f#\	bi-	4a\	bi-	1.r	1.r
4G#\	.	4a/	4ff#\	4F#\	-bet	4c#\	-bet	4f#\	-bet	4f#/	-bet	.	.
4r	.	4a/	4aa\	4r	.	4r	.	4r	.	4cc#\	prop-	.	.
!	!	!	!	!LO:LB:g=original	!	!	!	!	!	!	!	!	!
=85	=85	=85	=85	=85	=85	=85	=85	=85	=85	=85	=85	=85	=85
4r	.	4.dd\	4r	4r	.	4r	.	4r	.	4.dd\	-te-	.	.
4F#\	6	.	4aa\	4F#\	e-	4d\	e-	4a\	e-	.	.	.	.
.	.	8dd\	.	.	.	.	.	.	.	8dd\	-re-	.	.
4G#\	6 5	4dd\	4bb\	4G#\	-xal-	4e\	-xal-	4b\	-xal-	4dd\	-a	.	.
!	!	!LO:LB:g=original	!LO:LB:g=original	!	!	!	!	!	!	!	!	!	!
=86	=86	=86	=86	=86	=86	=86	=86	=86	=86	=86	=86	=86	=86
2.A\	.	4.cc#\	4.aa\	2.A\	-ta-	2.e\	-ta-	2.e\	-ta-	(4cc#\	e-	2.r	2.r
.	.	.	.	.	.	.	.	.	.	4b\)	.	.	.
.	.	8cc#\	8aa\	.	.	.	.	.	.	.	.	.	.
.	.	4cc#\	4aa\	.	.	.	.	.	.	4a\	-xal-	.	.
=87	=87	=87	=87	=87	=87	=87	=87	=87	=87	=87	=87	=87	=87
4G#\	6	2.ee\	4bb\	4G#\	.	2.e\	.	4b\	.	2.ee\	-ta-	2.cc#\	2.ee\
4F#\	.	.	4aa\	4F#\	.	.	.	4a\	.	.	.	.	.
4E\	.	.	4gg#\	4E\	.	.	.	4g#\	.	.	.	.	.
=88	=88	=88	=88	=88	=88	=88	=88	=88	=88	=88	=88	=88	=88
4E\	#7	2.dd\	4gg#\	4E\	.	4e\	.	4g#\	.	2.dd\	.	2.b\	2.dd\
4F#\	6 5	.	4aa\	4F#\	.	4d\	.	4a\	.	.	.	.	.
4G#\	.	.	4bb\	4G#\	.	4e\	.	4b\	.	.	.	.	.
=89	=89	=89	=89	=89	=89	=89	=89	=89	=89	=89	=89	=89	=89
4A\	.	4cc#\	4aa\	4A\	.	4e\	.	4e\	.	4cc#\	.	4a\	4cc#\
4B\	6	4b\	4gg#\	4B\	.	4d\	.	4g#\	.	4b\	.	4e/	4b\
4c#\	.	4a/	4aa\	4c#\	-bit	4c#\	-bit	4e\	.	4a\	-bit	4c#/	4a\
!	!	!	!	!	!	!LO:LB:g=original	!	!	!	!LO:LB:g=original	!	!	!LO:LB:g=original
=90	=90	=90	=90	=90	=90	=90	=90	=90	=90	=90	=90	=90	=90
4d\	56	4dd\	4bb\	4d\	ca-	2.B\	ca-	4f#\	-bit	4a\	ca-	4a\	4cc#\
4e\	.	2bT\	2gg#t\	4e\	.	.	.	2e\	ca-	2g#\	.	2e/	2b\
4E\	.	.	.	4E\	.	.	.	.	.	.	.	.	.
!	!	!	!	!	!	!	!	!	!	!	!	!LO:LB:g=original	!
=91	=91	=91	=91	=91	=91	=91	=91	=91	=91	=91	=91	=91	=91
!	!	!	!	!LO:TX:a:t=Gloria Tacet	!	!LO:TX:a:t=Gloria Tacet	!	!	!	!	!	!LO:TX:a:t=Gloria Patri Tacet	!LO:TX:a:t=Gloria Patri Tacet
2.A\	.	2.cc#\	2.aa\	2.A\	-put	2.c#\	-put.	2.e\	-put.	2.a\	-put	2.c#/	2.a\
==	==	==	==	==	==	==	==	==	==	==	==	==	==
*-	*-	*-	*-	*-	*-	*-	*-	*-	*-	*-	*-	*-	*-
!!!system-decoration: [(s1,s2)][(s3,s4,s5,s6)][(s7,s8)][(s9)]
!!!ENC: Berenika Jozajtis
!!!END: 2024-05-14
!!!ENC: Leszek Kubiak
!!!END: 2024-08-06
